img/header/logo.svg

<svg width="40" height="18" viewBox="0 0 40 18" fill="none" xmlns="http://www.w3.org/2000/svg">
<path d="M1.87961 15.1313C2.50776 15.1313 3.06746 15.0246 3.55871 14.8112C4.05801 14.5978 4.47677 14.2982 4.81501 13.9124C5.15324 13.5267 5.41095 13.0588 5.58812 12.5089C5.77334 11.959 5.86595 11.3434 5.86595 10.6621V0H9.11543V10.6621C9.11543 11.7209 8.94631 12.7018 8.60807 13.6046C8.27789 14.4993 7.79873 15.275 7.17058 15.9316C6.55048 16.58 5.79348 17.0889 4.89957 17.4583C4.00566 17.8194 2.99901 18 1.87961 18C0.75216 18 -0.258519 17.8194 -1.15243 17.4583C-2.04633 17.0889 -2.80736 16.58 -3.43551 15.9316C-4.05561 15.275 -4.53478 14.4993 -4.87301 13.6046C-5.2032 12.7018 -5.36829 11.7209 -5.36829 10.6621V0H-2.11881V10.6498C-2.11881 11.3311 -2.03023 11.9466 -1.85306 12.4966C-1.66783 13.0465 -1.4061 13.5185 -1.06787 13.9124C-0.721579 14.2982 -0.302812 14.5978 0.188435 14.8112C0.687734 15.0246 1.25146 15.1313 1.87961 15.1313Z" fill="#4592FF"/>
<path d="M27.5055 0V17.803H25.8384C25.5807 17.803 25.3633 17.762 25.1861 17.6799C25.017 17.5896 24.8519 17.4419 24.6909 17.2367L15.5706 5.36799C15.6189 5.90971 15.6431 6.4104 15.6431 6.87004V17.803H12.7801V0H14.4834C14.6203 0 14.7371 0.00820777 14.8337 0.0246234C14.9384 0.0328317 15.027 0.057456 15.0995 0.0984956C15.18 0.131328 15.2565 0.184679 15.329 0.25855C15.4015 0.324214 15.482 0.414501 15.5706 0.529412L24.7271 12.4473C24.7029 12.1601 24.6828 11.8769 24.6667 11.5978C24.6506 11.3187 24.6425 11.0602 24.6425 10.8222V0H27.5055Z" fill="#4592FF"/>
<path d="M46.3623 0L39.3076 17.803H36.3722L29.3176 0H31.9269C32.2087 0 32.4382 0.0697678 32.6154 0.209303C32.7926 0.348838 32.9255 0.529412 33.014 0.751026L37.1333 11.6101C37.2702 11.9631 37.399 12.3529 37.5198 12.7798C37.6487 13.1984 37.7695 13.6375 37.8822 14.0971C37.9789 13.6375 38.0835 13.1984 38.1963 12.7798C38.309 12.3529 38.4339 11.9631 38.5708 11.6101L42.6658 0.751026C42.7303 0.562243 42.8551 0.389877 43.0403 0.233927C43.2336 0.0779756 43.4671 0 43.7409 0H46.3623Z" fill="#4592FF"/>
</svg>

<svg width="40" height="18" fill="none" xmlns="http://www.w3.org/2000/svg"><path d="M1.88 15.131c.628 0 1.187-.106 1.679-.32.499-.213.918-.513 1.256-.899.338-.385.596-.853.773-1.403.185-.55.278-1.166.278-1.847V0h3.25v10.662c0 1.059-.17 2.04-.508 2.943-.33.894-.81 1.67-1.437 2.327A6.565 6.565 0 014.9 17.458c-.894.361-1.901.542-3.02.542-1.128 0-2.139-.18-3.032-.542a6.692 6.692 0 01-2.284-1.526 6.9 6.9 0 01-1.437-2.327c-.33-.903-.495-1.884-.495-2.943V0h3.25v10.65c0 .681.088 1.297.265 1.847.185.55.447 1.021.785 1.415.346.386.765.686 1.256.9.5.213 1.063.32 1.692.32zM27.506 0v17.803h-1.668c-.257 0-.475-.041-.652-.123a1.624 1.624 0 01-.495-.443L15.57 5.368a17 17 0 01.072 1.502v10.933H12.78V0h1.703c.137 0 .254.008.35.025a.636.636 0 01.267.073c.08.033.157.087.229.16.072.066.153.157.242.271l9.156 11.918c-.024-.287-.044-.57-.06-.85-.016-.278-.025-.537-.025-.775V0h2.864zM46.362 0l-7.054 17.803h-2.936L29.318 0h2.609c.282 0 .511.07.688.21.178.139.31.32.399.541l4.12 10.86c.136.352.265.742.386 1.169.129.418.25.857.362 1.317.097-.46.202-.899.314-1.317.113-.427.238-.817.375-1.17L42.666.751a1.18 1.18 0 01.374-.517 1.08 1.08 0 01.7-.234h2.622z" fill="#4592FF"/></svg>
